packages/cfpb-design-system/src/components/cfpb-icons/icons/prepaid-cards.svg

<svg viewBox="0 0 13 19" xmlns="http://www.w3.org/2000/svg"><path d="m12.48 3.638v11.096a.476.476 0 0 1 -.475.475h-11.01a.476.476 0 0 1 -.475-.475v-11.096a.476.476 0 0 1 .475-.475h11.01a.476.476 0 0 1 .475.475m-10.628 5.35v.247h9.296v-.245a1.11 1.11 0 0 0 -1.108-1.11h-7.08a1.11 1.11 0 0 0 -1.108 1.108m9.296 3.685v-2.33h-9.296v2.33a1.11 1.11 0 0 0 1.108 1.107h7.08a1.11 1.11 0 0 0 1.108-1.108zm-4.864-1.135h-3.034v1.109h3.035zm-.584-6.613a.792.792 0 1 0 .792-.791.79.79 0 0 0 -.792.791"/></svg>

<svg xmlns="http://www.w3.org/2000/svg" aria-hidden="true" class="cf-icon-svg cf-icon-svg--prepaid-cards" viewBox="0 0 13 19"><path d="M12.48 3.638v11.096a.476.476 0 0 1-.475.475H.995a.476.476 0 0 1-.475-.475V3.638a.476.476 0 0 1 .475-.475h11.01a.476.476 0 0 1 .475.475M1.852 8.988v.247h9.296V8.99a1.11 1.11 0 0 0-1.108-1.11H2.96a1.11 1.11 0 0 0-1.108 1.108m9.296 3.685v-2.33H1.852v2.33A1.11 1.11 0 0 0 2.96 13.78h7.08a1.11 1.11 0 0 0 1.108-1.108zm-4.864-1.135H3.25v1.109h3.035zM5.7 4.925a.792.792 0 1 0 .792-.791.79.79 0 0 0-.792.791"/></svg>
